X:1
T:Khvalitye imya Gospodie
T:Сергeй Рахманинов, 1915
T:Блажен муж
T:Всенощное бдение, Op. 37, No. 3
T:Public Domain
T:Public Domain
T:Public Domain
T:Public Domain
T:Public Domain
T:Public Domain
T:Public Domain
T:Public Domain
T:Public Domain
T:Public Domain
T:Public Domain
T:Public Domain
C:Sergei Rakhmanninov
Z:Public Domain
%%score [ ( 1 2 ) ( 3 4 ) ( 5 6 ) ( 7 8 ) ]
L:1/8
Q:1/4=150
M:none
K:F
V:1 treble nm="Сопрано" snm="С."
V:2 treble 
V:3 treble nm="Альт" snm="А."
V:4 treble 
V:5 treble-8 nm="Тенор" snm="Т."
V:6 treble-8 
V:7 bass nm="Бас" snm="Б."
V:8 bass 
V:1
"^Довольно скоро, но покойно и мягко\nFairly fast, but calmly and easily" z8 z8 z8 z8 z8 z8 | %1
!pp! F2 G2 !tenuto!A2 AB A2 A2 A2 !tenuto!A2 GF | G2!<(! G2 G2!>(! F4 E4 !fermata!F4!<)!!>)! | %3
 z8 z8 z8 z8 z8 | z2 z2 z2 z2 z8 z4 | %5
!p! F2 G2 !tenuto!A2 AB A2 A2 A2 !tenuto!A2 GF G2!<(! G2 G2!>(! F4 E4 !fermata!F4!<)!!>)! | %6
!p!!<(! z8!>(! z8 z8!mf! z8!mp! z8!<)!!>)! | z8 z8 z8 z2 | %8
"^С каждым разом звучнее, бодрее\nEach time louder, more energetic"[Q:1/4=155]!mp! G2 A2 !tenuto!B2 Bc B2 B2 B2 !tenuto!B2 AG A2 A2 A2 !tenuto!G4 F4 !fermata!G4 | %9
 z8 z8 z8 z8 z8 z8 z4 | %10
[Q:1/4=160]!mf! A2!<(! =B2 !tenuto!c2 cd c2 c2 c2 !tenuto!c2 BA B2 B2 B2 !tenuto!A4 G4 !fermata!A4!<)! | %11
 z8 z8 z2 z2 z2 | z8 z8 z8 | %13
!mf!!<(! B2 c2 !tenuto!d2!>(! d_e d2 d2 d2 !tenuto!d2 cB c2!>(! c2 c2 !tenuto!B4 A4 !fermata!B4!<)!!>)!!>)! | %14
!p! z8 z8 z8 z8 z8 z2 | z8 z8 z8 z2 | %16
!f! d2 e2 !tenuto!f2 fg f2 f2 f2 !tenuto![cf]2 ed [ce]2 [ce]2 [ce]2 !>!d4 ^c4 d4 | %17
"^Темп еще быстрее\nTempo even faster"[Q:1/4=170]!ff! f4 f2 f2 !tenuto!f2 ed e2 e2 e2 dc d2 d2 (!tenuto!d2 ^c2)!<(! d3 e!<)! | %18
"^очень ритмично\nvery rhythmically"!ff! (f3 e) !tenuto!d2 !tenuto!c2 !tenuto!d2 !tenuto!dc B2 A2 B2"^задерживая\nslowing"[Q:1/4=160] BA!>(! G2[Q:1/4=150] ^F2!p! G4!>)! | %19
"^Прежний темп:  легко, маягко\nFirst tempo: easily, gently"[Q:1/4=150]!mf! B2 c2 !tenuto![Bd]2 d_e [Bd]2 !tenuto![Bd][Ac] !tenuto![Bd][Ac] !tenuto![Bd]2 de [Bd]2 [Bd]2 [Bd]2 !tenuto![Bd]2 [Ac][GB] [Ac]2"^задерживая\nslowing"[Q:1/4=140] cc!<(!c[Q:1/4=135]c (!tenuto!B4[Q:1/4=125] A4) B4!<)! | %20
"^Прежний темп\nFirst tempo"[Q:1/4=150]!p! G2 A2 !tenuto!B2 Bc B2 !tenuto!BA !tenuto!BA !tenuto!B2 Bc B2 B2 B2 !tenuto!B2 AG A2"^задерживая\nslowing"[Q:1/4=140] AA!<(!A[Q:1/4=135]A (!tenuto!G4[Q:1/4=125] ^F4) G4!<)! | %21
!pp!"^Прежний темп\nFirst tempo"[Q:1/4=150] F2 G2 !tenuto!A2 AB A2 AG AG !tenuto!A2 AB A2 A2 A2 !tenuto!A2 GF G2"^задерживая\nslowing"[Q:1/4=140] GGG[Q:1/4=135]G (F4[Q:1/4=125] E4) !fermata!F8 |] %22
V:2
 x48 | x18 | x18 | x40 | x20 | x36 | %6
 (F2 G2) A4 G2 A2 A2!p! A2 A2 AG!<(! A2 (Bc d!>(!c) B2!<(! B2 (AB c!>(!B) AB A2 A2 | %7
 B2 (A3!>(! B A2 G2!pp! F2) z2 z4 z8!<)! | x36!>)! | x52 | x36!>)! | x22 | x24 | x36!<)!!>)! | %14
 F2!<(! F2 G2 (A4 GA)!>(! GF!p! G2 G2 G2 GA GF G2 G2 A2 (B2 A2 B2 c2) B2 A2 | %15
 GF!p! G3 G!>(! G2 A2 F2 z2 z4 z8!<)! | d2 e2 x2 x2 x2 x2 x2 x2 c2 x2 x16!>)!!>)! | x32 | x28 | %19
 x2 x2 x2 B2 x2 x2 x2 x2 B2 x2 x4 x8 x8 x4 x2 | x46 | x50 |] %22
V:3
!p!"^Бла – жен муж, и– же не  и–де  на  со – вет        не–чес–ти–вых.    Ал–ли–луй-и  – а,    ал – ли –луй–и  –""^Bla – zhen muzh, i–zhe nye i–dye na  so-vyet        nye-ches-ti–vuikh.  Al  – li  – lui – i  – a,    al  –  li   –  lui – i  –" ([DF]2 [EG]2) [FA]4 [EG]6 [EG]2!<(! A2 [GB]2 [FAc]2!>(! [GB]2 A2 GF!p! [EG]4 [EG]2 [EA]2 F4 F8!<)!!>)! | %1
!pp! F2 G2 !tenuto!A2 AB A2 A2 A2 !tenuto!A2 GF | %2
"^–а,     ал – ли – луй  –  и   –    а.          Я – ко   весть        Го–сподь  путь  пра-вед-ных, и      путь     не–чес–ти –""^–a,      al  –  li   – lui    –   i    –    a.         Ya – ko  vest'           Go–spod'   put'    pra-ved-nuikh, i       put'       ne–ches–ti  –" G2!<(! G2 G2!>(! F4 E4 !fermata!F4!<)!!>)! | %3
!p! [DF]2 [EG]2 [FA]6 GF [EG]4!<(! (A2 [GB]2)!>(! [FAc]2 [GB]2 A2 GF [EG]4 [EG]2 [DFA]2 ([CEB]2 [DFA]2)!<)!!>)! | %4
"^–вых   по – гиб       –       –       нет.                 Ал –ли–луй-и   –  а,   ал   – ли  –луй-и  –  а,    ал   –  ли – луй – и  –   а.""^–vuikh  po – gib        –       –       nyet.                Al –  li – lui –  i    –  a,    al   –  li    – lui – i   –  a,    al    –   li   –  lui   –  i   –   a." [EG]2 [EA]2!p! (F4- FG E2) F8 | %5
!p! F2 G2 !tenuto!A2 AB A2 A2 A2 !tenuto!A2 GF G2!<(! G2 G2!>(! F4 E4 !fermata!F4!<)!!>)! | %6
!p!"^Ра       –      бо    –   тай–те        Го  –  спо  – де –  ви       со      стра       –       хом    и        ра         –         дуй  – те –  ся""^Ra       –      bo    –    tai – tye      Go  –  spo  –dye – vi         so      stra        –      khom   i         ra         –          dui  – tye –sya"!<(! ([DF]2 [EG]2) [FA]4!>(! [EG]2 [FA][EG] [FA]2!p! [FA]2 [FA]2 [FA][EG]!<(! [FA]2 ([GB][Ac]!mf! [Bd]!>(![Ac]) [GB]2!<(! [GB]2 ([FA][GB]!mp! [Ac]!>(![GB]) [FA][GB] [FA]2 [FA]2!<)!!>)!!<)!!>)!!<)!!>)! | %7
"^Е   –   му                       с тре         –         пе–том.          Ал-ли-луй-и –  а,  ал    –  ли–луй-и  – а,  ал  – ли –луй–и – а.""^Ye  –   mu                       s  tre          –         pe –tom.          Al– li– lui – i  –  a,   Al    –   li  – lui – i   – a,   al  –  li   – lui  – i  – a."!<(! [GB]2 ([FA]3!>(! [GB] [FA]2 [EG]2)!p! (F3!>(! G FG) E2 F8!<)!!>)!!>)! | %8
!mp! G2 A2 !tenuto!B2 Bc B2 B2 B2 !tenuto!B2 AG A2 A2 A2!>(! !tenuto!G4 F4 !fermata!G4!>)! | %9
!p!"^Бла     –     же         –        ни       вси                на – де       –       –      ю – щи – и   –  ся                   Нань.""^Bla      –    zhe        –          ni        vsya               na – de       –       –     yu-shchi– i    – sya                  Nan'." ([DF]2 [EG]2) ([FA]4 GA) GF ([EG]4!<(! A2) [GB]2 ([FAc]2!>(! [GB]2 A2) [GB]2 A2 A2!p!!<(! (A2 GF)!>(! (G4 A4 F8)!<)!!>)!!<)!!>)! | %10
!mf!"^Ал –ли–луй-и  – а,    ал  – ли –луй-и   –  а,   ал  – ли – луй– и   –   а.        Вос-крес – ни,                   Го–спо–ди, спа –""^Al – li  – lui – i   – a,     al  –  li   – lui – i    –  a,    al  –  li   –  lui  –  i    –   a.        Vos–kres  –  ni,                    Go–spo– di,  spa – si" E2!<(! E2 !tenuto!E2 EF E2 EF GA !tenuto!G2 G2 G2 G2 G2!>(! !tenuto!A4 [EG]4 !fermata!A4!<)!!>)! | %11
!p! [CE]2!<(! ([DF]2 [EG]2)!>(! ([FA]6 GF) [EG]2 [EG]2!<(! [EG]2 [FA][GB]!<)!!>)!!<)! | %12
"^–си                мя,  Бо        –        же  мой.      Ал–ли–луй-и   –    а,     ал  –  ли –луй-и   –   а,     ал–ли – луй – и   –    а.\n""^– si               mya, Bo        –       zhe  moi.       Al – li  – lui– i     –    a,     al   –   li   – lui – i    –   a,     al – li   –  lui  –  i     –    a." ([Ac]2 [GB]2 [FA]2)!>(! G2 ([FA]2 [EG][DF]!pp! [EG]2) [EG]2 [DF]8!>)! | %13
!mf!!<(! G2 A2 !tenuto!B2!>(! B2 B2!<(! B2 B2 !tenuto!B2!>(! AG [FA]2!>(! A2 A2 !tenuto!G4 ^F4 !fermata!G4!<)!!>)!!<)!!>)!!>)! | %14
!p!"^Гос –под–не     есть                       спа – се –  ни   –   е        и        на        лю– дех     Тво–их                                   бла–го –""^Gos – pod–nye  yest'                       spa  – se  –  ni    –  ye       i         na        lyu–dekh    Tvo–ikh                                  bla– go –" [DF]2!<(! [DF]2 [EG]2 ([FA]4 [EG][FA])!>(! [EG][DF]!p! [EG]2 [EG]2 [EG]2 [EG][FA] [EG][DF] [EG]2 [EG]2!<(! [FA]2 ([GB]2 [FA]2 [GB]2 [Ac]2)!>(! [GB]2 [FA]2!<)!!>)!!<)!!>)! | %15
"^–сло  – ве–ни–е     Тво–е.                                                        Ал-ли-луй-и –  а,  ал –  ли–луй-и  – а,  ал-ли-луй-и  –   а.""^– slo  –  ve– ni–ye   Tvo–ye.                                                       Al–li – lui– i   –  a,  al  –   li  – lui – i   – a,   al– li – lui– i   –   a." [EG][DF]!p! [EG]3 [FG]!>(! [EG]2 [EA]2!pp! (F3 G FG E2 F8)!>)! | %16
!f! [GB]2 [GB]2 !tenuto![AB]2 AB A2 A2 A2 !tenuto!A2 GF G2!<(! G2 G2 !>![EB]4!>(! [EA]4 F4!<)!!>)! | %17
!ff!"^Сла    –     ва            От     –    цу        и             Сы   –  ну           и         Свя   –    то     –    му          Ду       –       –      ху,           и""^Sla     –     va             Ot     –    tsu        i               Sui  –   nu           i          Svya  –    to      –    mu         Du       –       –     khu,         i" A4 AB cB !tenuto!A2 GF G2 G2 [Gc]2 BA [GB]2 GA (!tenuto!B2 AG)!<(! F3 G!<)! | %18
!ff!"^ны       –       –       –  не           и           при  –  сно             и            во          ве       –     ки    ве – ков.      А     –     минь.""^nui      –        –        – nye          i            pri    –   sno              i             vo          ve       –     ki      ve – kov.       A    –      min'." (A3 G) A2 !tenuto!A2 !tenuto!A2 !tenuto!A2 F2 _E2 D2 FE!>(! D2 D2!p! D4!>)! | %19
!mf!"^Ал –ли-луй-и    –    а,    ал –  ли –луй–и    –  а,   ал  –  ли –луй-и    –  а.   Сла-ва   Те– бе,    Бо       –       –   же.""^Al  –  li –lui – i     –    a,    al   –   li  – lui –  i     –  a,   al  –    li   – lui – i    –   a.   Sla– va   Te –bye,  Bo      –       –  zhe." G2 A2 F2 FG F2 !tenuto!F2 !tenuto!F2 !tenuto!F2 FG F2 DE FG !tenuto!F2 F2 F2 FF!<(!_EF (!tenuto!G4 F4) D4!<)! | %20
!p!"^Ал –ли–луй–и  –   а,    ал –  ли –луй –и    –  а,     ал –ли–луй-и     –   а.   Сла-ва  Те–бе,  Бо       –       –     же.""^Al  –  li –  lui – i    –  a,    al   –   li  –  lui –  i     –  a,      al  – li  – lui – i     –   a.   Sla– va  Te–bye, Bo      –       –    zhe." [_EG]2 [D^F]2 !tenuto![DG]2 G2 G2 !tenuto!GF !tenuto!GF !tenuto!G2 G2 [DG]2 [DG]2 [DG]2 !tenuto![DG]2 =F=E [DF]2 [DF][DF]!<(![CF][DF] (!tenuto!_E4 D4) D4!<)! | %21
!pp!"^Ал –ли–луй –и    –   а,      ал –  ли – луй –и    –  а,     ал  –   ли –  луй–и    –  а.     Сла-ва Те–бе, Бо       –         же.""^Al  –  li –  lui  – i     –   a,      al   –   li  –  lui   – i     –  a,      al   –    li   –   lui – i     –  a.     Sla-va Te–bye, Bo       –       zhe." [DF]2 [EG]2 !tenuto![FA]2 AB [FA]2 [FA][EG] [FA][EG] !tenuto![FA]2 AB [FA]2 [FA]2 [FA]2 !tenuto![FA]2 [EG][DF] [EG]2 [EG][EG][EG][EG] ([DF]4 [^CE]4) !fermata![DF]8 |] %22
V:4
 x48 | x18 | x18 | x40 | x20 | x36 | x40 | x26 | x36 | x4 x4 x4 x4 x4 x4 x4 A2 AG F2 GF E8 x8 | %10
 x36 | x22 | x24 | x2 x2 x2 x2 B2 DE FG F2 F2 x2 x16 | x42 | x26 | x36 | x4 x4 x4 x4 x2 G2 x4 x8 | %18
 x28 | x46 | x2 x2 x2 D_E D2 !tenuto!D2 !tenuto!D2 !tenuto!D2 DE x2 x2 x2 x2 D2 x4 x8 x4 x2 | %21
 x2 x2 x2 F2 x2 x2 x2 x2 F2 x32 |] %22
V:5
!p! (A2 c2) f4 c6 c2!<(! f2 e2 d2!>(! e2 f2 ed!p! (c3 d)!p! c2 c2 d4 d8!<)!!>)! | %1
!pp! [Ad]2 [Ae]2 !tenuto![Af]2 f2 f2 f2 f2 !tenuto!f2 ed | %2
 [ce]2!<(! [ce]2 [ce]2!>(! [Ad]4 [A^c]4 !fermata![Ad]4!<)!!>)! | %3
!p! A2 c2 f6 ed c4!<(! (f2 e2)!>(! d2 e2 f2 ed (c3 d) e2 f2 (g2 f2)!<)!!>)! | %4
 ed c2!p! (d4- d2 ^c2) d8 | %5
!p! [Ad]2 [Ae]2 !tenuto![Af]2 f2 f2 f2 f2 !tenuto!f2 ed e2!<(! e2 e2!>(! [Ad]4 [A^c]4 !fermata![Ad]4!<)!!>)! | %6
!p!!<(! (A2 c2) f4!>(! e2 fe d2!p! de d2 dA!<(! d2 (d2!mf!!>(! g2) d2!<(! g2 (fe!mp! f2)!>(! c2 d2 c2!<)!!>)!!<)!!>)!!<)!!>)! | %7
!<(! de (f3 e f2 A2)!p! (d3!>(! e d2) ^c2 d8!<)!!>)! | %8
!mp! [Bd]2 [cd]2 !tenuto![Bd]2 d_e d2 d=e fg !tenuto!f2 f2 f2 f2 f2 !tenuto![Bd]4 [Ad]4 !fermata![Bd]4 | %9
!p! (d2 c2) (f4 ef) ed (c4!<(! f2) e2 (d2!>(! e2 f2) e2 f2 fe!p! (d2!<(! ed)!>(! (c8 d8)!<)!!>)!!<)!!>)! | %10
!mf! [Ac]2!<(! [=Bd]2 [Gc]2 c2 [Gc]2 [Gc]2 [Gc]2 !tenuto![ce]2 d[ce] d2 Bc Bd!>(! !tenuto![Ac]4 B4 !fermata![Ac]4!<)!!>)! | %11
!p! A2!<(! (d2 c2)!>(! (f6 ed) c2 cd!<(! c2 c2!<)!!>)!!<)! | f6!>(! e2 (d4!pp! A2) A2 d8!>)! | %13
!mf!!<(! [Bd]2 [c_e]2 [df]2!>(! [df][eg] [df]2!<(! [Bd]2 [Bd]2 !tenuto!d2!>(! cd c2!>(! [cf]2 ef !tenuto![Bd]4 [Ad]4 !fermata![Bd]4!<)!!>)!!<)!!>)!!>)! | %14
!p! B2!<(! d2 c2 (f4 ef)!>(! ed!p! c2 cd c2 c2 c2 c2 cd!<(! c2 (c2 d2 e2 f2)!>(! [eg]2 f2!<)!!>)!!<)!!>)! | %15
 ed!p! c3 d!>(! c2 c2!pp! (d3 e d2 ^c2 d8)!>)! | %16
!f! [Bd]2 [Be]2 !tenuto![cf]2 f2 f2 c2 c2 !tenuto!f2 ed [ce]2!<(! [Ge]2 [Ge]2 !>![Bd]4!>(! [A^c]4 [Ad]4!<)!!>)! | %17
!ff! [cf]4 [cf]2 [cf]2 !tenuto!f2 ed [ce]2 [ce]2 [ce]2 [Bd][Ac] [Bd]2 [Bd]2 e4!<(! [Ad]3 [Bc]!<)! | %18
!ff! c4 !tenuto!f2 !tenuto!e2 !tenuto![Af]2 !tenuto!fe d2 c2 Bcdc!>(! B2 A2!p! B4!>)! | %19
!mf! [Bd]2 [c_e]2 !tenuto![Bd]2 de d2 !tenuto!dc !tenuto!dc !tenuto!d2 de [Bd]2 [Bd]2 [Bd]2 !tenuto![Bd]2 cd c2 [Ac][Ac]!<(![Gc][Gc] !tenuto!c8 B4!<)! | %20
!p! [GB]2 [Ac]2 !tenuto![GB]2 Bc B2 !tenuto!BA !tenuto!BA !tenuto!B2 Bc [GB]2 [GB]2 [GB]2 !tenuto![GB]2 AB A2 AA!<(!AA !tenuto!A8 [GB]4!<)! | %21
!pp! A2 B2 !tenuto!A2 [Ac][Bd] [Ac]2 c2 c2 !tenuto!c2 [Ac][Bd] !tenuto!c2 AB cd !tenuto!c2 c2 [Gc]2 cccc A8 !fermata!A8 |] %22
V:6
 z8 z8 z8 z8 cB A2 d4 x8 | x2 x2 x2 AB A2 AB cd c2 c2 | x2 x16 | z8 z8 z8 z8 z8 | %4
 z2 cA d4 A4 x4 x4 | x2 x2 x2 AB A2 AB cd !tenuto!c2 c2 c2 c2 c2 x4 x8 | %6
 x4 x4 x4 x4 x4 x4 x4 x4 x4 x4 | x4!>(! x4 x2 (d4 G2) A2 x8 | %8
 x2 x2 x2 B2 B2 B2 B2 !tenuto!d2 cB c2 AB Ac x4 x8!>)! | z8 z8 z8 z8 z4 c4 A4 x4 x4 | %10
 x2 x2 x2 GA x4 x4 x4 x2 =B2 x4 x8 | x22 | x24 | x4 x4 x4 x4 x4 x2 c2 x4 x8 | %14
 z8 z8 z4 c2 A2 c2 x4 (c6 d2) x2 x2 | x2 x4 cB A2 d4 G2 A2 x4 x4 | %16
 x2 x2 x2 cd c2 FG AB !tenuto!c2 c2 c2 x16 | x4 x4 x4 x4 x4 x4 (B2 A2) x4 | x2 x2 x2 x2 x2 A2 x16 | %19
 x2 x2 x2 B2 B2 !tenuto!F2 !tenuto!F2 !tenuto!B2 B2 x2 x4 x8 x8 x4 x2 | %20
 x2 x2 x2 G2 G2 !tenuto!D2 !tenuto!D2 !tenuto!G2 G2 x2 x4 x8 x8 x4 x2 | %21
 x2 x2 x2 x2 x2 AG AG !tenuto!A2 x2 A2 F2 F2 !tenuto!A2 GA x2 x4 x16 |] %22
V:7
 z8 z8 z8 z8 z8 z8 |!pp! D,2 A,,2 !tenuto![F,,C,]2 C,D, C,2 C,2 C,2 !tenuto!C,2 G,A, | %2
 G,2!<(! G,2 G,2!>(! [D,F,]4 [A,,E,]4 !fermata![D,,D,]4!<)!!>)! | z8 z8 z8 z8 z8 | z16 z4 | %5
!p! D,2 A,,2 !tenuto![F,,C,]2 C,D, C,2 C,2 C,2 !tenuto!C,2 G,A, G,2!<(! G,2 G,2!>(! [D,F,]4 [A,,E,]4 !fermata![D,,D,]4!<)!!>)! | %6
 z8 z8 z8 z8 z8 | z16 z8 z2 | %8
!mp! G,2 D,2 !tenuto![B,,F,]2 F,G, F,2 F,2 F,2 !tenuto!F,2 F,2 F,2 C,D, C,F,!>(! [G,,D,]4 [D,,D,]4 !fermata![G,,D,]4!>)! | %9
 z8 z8 z8 z8 z8 z8 z4 | %10
!mf!!<(! A,2 E,2 C,2 C,2 C,2 C,D, E,F, !tenuto!G,2 G,2 G,2 D,E, D,G,!>(! !tenuto![A,,E,]4 [E,,E,]4 !fermata![A,,E,]4!<)!!>)! | %11
 z8 z8 z4 z2 | z16 z8 | %13
!mf!!<(! [G,,D,]2 [F,,F,]2 !tenuto![B,,F,]2!>(! F,G, F,2!<(! F,2 F,2 !tenuto!F,2!>(! F,2 F,2!>(! [F,,F,]2 [F,,F,]2 !tenuto![G,,D,]4 [D,,D,]4 !fermata![G,,D,]4!<)!!>)!!<)!!>)!!>)! | %14
 z8 z8 z8 z8 z8 z2 | z8 z8 z8 z2 | %16
!f! G,2 C,2 !tenuto!F,2 F,2 F,2 [F,,F,]2 [F,,F,]2 !tenuto![C,A,]2 G,A, [C,G,]2!<(! [C,E,]2 [C,E,]2 !>![G,,E,]4!>(! [A,,E,]4 D,4!<)!!>)! | %17
!ff! F,4 F,G, A,B, !tenuto!C2 C2 C2 B,A, G,2 G,2 G,F, E,F, (!tenuto!G,2 A,2)!<(! D,3 C,!<)! | %18
!ff! F,G,A,B, !tenuto!A,2 !tenuto![A,,A,]2 !tenuto!D,2 !tenuto!D,E, F,2 [F,,F,]2 B,,A,,B,,C,!>(! D,2 [D,,D,]2!p! [G,,D,]4!>)! | %19
!mf! G,2 F,2 [B,,F,]2 F,G, F,2 !tenuto!F,2 !tenuto!F,2 !tenuto!F,2 F,G, F,2 F,2 F,2 !tenuto!F,2 F,2 F,2 F,F,!<(!C,D, (!tenuto!_E,4 F,4) [B,,F,]4!<)! | %20
!p! _E,2 D,2 !tenuto![G,,D,]2 D,E, D,2 !tenuto!D,2 !tenuto!D,2 !tenuto!D,2 D,E, D,2 D,2 D,2 !tenuto!D,2 D,2 D,2 D,D,!<(!A,,B,, (!tenuto!C,4 D,4) [G,,D,]4!<)! | %21
!pp! D,2 C,2 [F,,C,]2 C,D, C,2 C,2 C,2 !tenuto!C,2 C,D, C,2 C,2 C,2 !tenuto!C,2 C,2 C,2 C,A,,B,,C, (D,4 A,,4) !fermata![D,,D,]8 |] %22
V:8
 x48 | x2 x2 x2 F,,2 F,,2 F,,G,, A,,B,, C,2 C,2 | C,2 C,A,, B,,C, x4 x8 | x40 | x20 | %5
 x2 x2 x2 F,,2 F,,2 F,,G,, A,,B,, !tenuto!C,2 C,2 C,2 C,A,, B,,C, x4 x8 | x40 | x26 | x36 | x52 | %10
 x4 x4 x4 x4 x2 G,2 G,,2 G,,2 x4 x8 | x22 | x24 | x36 | x42 | x26 | x4 x4 x4 x4 C,2 x2 x16 | x32 | %18
 x28 | %19
 x2 x2 x2 B,,2 B,,2 !tenuto!B,,F,, !tenuto!B,,F,, !tenuto!B,,2 B,,2 B,,2 B,,C, D,E, !tenuto!F,2 F,2 F,2 x2 x8 x4 x2 | %20
 x46 | %21
 x2 x2 x2 F,,2 F,,2 F,,C,, F,,C,, F,,2 F,,2 F,,2 F,,G,, A,,B,, !tenuto!C,2 C,2 C,2 x2 x2 x16 |] %22

